vendor/shopware/storefront/Resources/app/storefront/dist/assets/icon/default/rocket.svg

<svg xmlns="http://www.w3.org/2000/svg" width="24" height="24" viewBox="0 0 24 24">
  <path fill="#758CA3" fill-rule="evenodd" d="M5.221307,14.4041754 C4.15911078,13.7669947 2.99505235,13.2795395 1.75746437,12.9701425 C1.00337797,12.7816209 0.743263024,11.8425234 1.29289322,11.2928932 L3.12132034,9.46446609 C4.05900224,8.5267842 5.3307718,8 6.65685425,8 L9.12713904,8 L9.597126,7.35376793 C12.0434354,3.99009253 15.9515195,2 20.1106951,2 L21,2 C21.5522847,2 22,2.44771525 22,3 L22,3.8893049 C22,8.04848052 20.0099075,11.9565646 16.6462321,14.402874 L16.2106852,14.7196353 L16.4208572,15.560323 C16.8468259,17.2641981 16.3475803,19.0666333 15.1056786,20.308535 L12.7071068,22.7071068 C12.1574766,23.256737 11.2183791,22.996622 11.0298575,22.2425356 C10.7204605,21.0049476 10.2330053,19.8408892 9.59582458,18.778693 C7.88984549,19.6200553 6.12604198,20.3454119 4.31622777,20.9486833 C3.53446974,21.2092693 2.79073069,20.4655303 3.0513167,19.6837722 C3.65458811,17.873958 4.37994472,16.1101545 5.221307,14.4041754 Z M6.14997343,12.6294841 C6.6459551,11.7344454 7.17488489,10.8573378 7.73581656,10 L6.65685425,10 C5.86120478,10 5.09814304,10.3160705 4.53553391,10.8786797 L3.87445525,11.5397583 C4.6684492,11.8393649 5.42912666,12.2047782 6.14997343,12.6294841 Z M14.4590934,15.9594792 C13.4565129,16.6344451 12.425982,17.2651448 11.3705159,17.8500266 C11.7952218,18.5708733 12.1606351,19.3315508 12.4602417,20.1255447 L13.691465,18.8943214 C14.436606,18.1491804 14.7361534,17.0677193 14.4805722,16.0453942 L14.4590934,15.9594792 Z M10.2347981,16.1923129 C11.7197224,15.3786684 13.1534272,14.4701011 14.5267244,13.4713395 L15.4698887,12.7854018 C18.2860638,10.7372744 19.9643584,7.47820803 19.9994389,4.00056108 C16.521792,4.03564164 13.2627256,5.71393617 11.2145982,8.53011133 L10.5286605,9.47327559 C9.52989893,10.8465728 8.62133163,12.2802776 7.80768707,13.7652019 C8.70824977,14.4770072 9.52299279,15.2917502 10.2347981,16.1923129 Z M8.41757903,17.1282875 C7.94749752,16.5697599 7.4302401,16.0525025 6.87171247,15.582421 C6.43695419,16.482471 6.03593828,17.3990816 5.66963749,18.3303625 C6.60091838,17.9640617 7.51752896,17.5630458 8.41757903,17.1282875 Z"/>
</svg>

<svg xmlns="http://www.w3.org/2000/svg" width="24" height="24" viewBox="0 0 24 24"><path fill="#758CA3" fill-rule="evenodd" d="M5.2213 14.4042a12.7324 12.7324 0 0 0-3.4638-1.434c-.7541-.1886-1.0142-1.1277-.4646-1.6773l1.8284-1.8284A5 5 0 0 1 6.657 8h2.47l.47-.6462A13 13 0 0 1 20.1107 2H21c.5523 0 1 .4477 1 1v.8893a13 13 0 0 1-5.3538 10.5136l-.4355.3167.2102.8407a5 5 0 0 1-1.3152 4.7482l-2.3986 2.3986c-.5496.5496-1.4887.2895-1.6772-.4646a12.7324 12.7324 0 0 0-1.434-3.4638 41.8718 41.8718 0 0 1-5.2797 2.17c-.7817.2606-1.5255-.4832-1.2649-1.265a41.8718 41.8718 0 0 1 2.17-5.2795zm.9287-1.7747A41.8718 41.8718 0 0 1 7.7358 10h-1.079a3 3 0 0 0-2.1213.8787l-.661.661c.794.2997 1.5546.665 2.2755 1.0898zm8.309 3.33a41.8717 41.8717 0 0 1-3.0885 1.8905 14.7187 14.7187 0 0 1 1.0897 2.2755l1.2313-1.2312a3 3 0 0 0 .789-2.849l-.0214-.0858zm-4.2242.2328a39.8717 39.8717 0 0 0 4.292-2.721l.943-.6859a11 11 0 0 0 4.5296-8.7848A11 11 0 0 0 11.2146 8.53l-.686.9432a39.8717 39.8717 0 0 0-2.721 4.2919 14.762 14.762 0 0 1 2.4272 2.4271zm-1.8172.936a12.7602 12.7602 0 0 0-1.5459-1.5459c-.4347.9-.8358 1.8167-1.202 2.748a39.8718 39.8718 0 0 0 2.7479-1.2021z"/></svg>
